src/breeze-plus-dark/status/22/obs-tray.svg

<svg xmlns="http://www.w3.org/2000/svg" width="22" height="22" version="1.1">
 <defs>
  <style id="current-color-scheme" type="text/css">
   .ColorScheme-Text { color:#fcfcfc; } .ColorScheme-Highlight { color:#3daee9; }
  </style>
 </defs>
 <path style="fill:currentColor" class="ColorScheme-Text" d="m 11.000031,3.0000003 a 8,8 0 0 0 -0.808594,0.041016 8,8 0 0 0 -0.7812495,0.1191406 c -0.206156,0.041816 -0.407285,0.096891 -0.607422,0.1542969 a 8,8 0 0 0 -0.177734,0.046875 c -0.03598,0.011226 -0.0697,0.027342 -0.105469,0.039063 a 8,8 0 0 0 -3.679688,2.5058594 c -0.0035,0.00424 -0.0082,0.00747 -0.01172,0.011719 a 8,8 0 0 0 -0.390624,0.5234372 c -0.02806,0.040253 -0.0586,0.078355 -0.08594,0.1191407 a 8,8 0 0 0 -0.271485,0.4433593 c -0.05078,0.087506 -0.102876,0.1741204 -0.150391,0.2636719 a 8,8 0 0 0 -0.193359,0.4042969 c -0.04636,0.1006576 -0.09447,0.1998949 -0.136719,0.3027344 a 8,8 0 0 0 -0.158203,0.4296875 c -0.03732,0.1081851 -0.07469,0.2159636 -0.107422,0.3261719 a 8,8 0 0 0 -0.09766,0.3769531 c -0.0354,0.144876 -0.0703,0.2896888 -0.09766,0.4375 a 8,8 0 0 0 -0.04883,0.3242187 c -0.02091,0.1464812 -0.04187,0.2925172 -0.05469,0.4414062 a 8,8 0 0 0 -0.03516,0.689453 8,8 0 0 0 0.04101,0.808594 c 2.59e-4,0.0026 -2.61e-4,0.0053 0,0.0078 a 8,8 0 0 0 0.119141,0.773438 c 0.04182,0.206155 0.09689,0.407284 0.154297,0.607422 a 8,8 0 0 0 0.04687,0.173828 c 0.01158,0.03719 0.02695,0.07242 0.03906,0.109375 a 8,8 0 0 0 2.50586,3.67969 c 0.0042,0.0035 0.0075,0.0082 0.01172,0.01172 a 8,8 0 0 0 0.523437,0.390624 c 0.04025,0.02806 0.07835,0.0586 0.11914,0.08594 a 8,8 0 0 0 0.44336,0.271484 c 0.08751,0.05078 0.17412,0.102875 0.263672,0.15039 a 8,8 0 0 0 0.404297,0.19336 c 0.100657,0.04636 0.199894,0.09447 0.302734,0.136719 a 8,8 0 0 0 0.429687,0.158203 c 0.108186,0.03732 0.215964,0.07469 0.326172,0.107422 a 8,8 0 0 0 0.376953,0.09766 c 0.144876,0.0354 0.289689,0.0703 0.4375,0.09766 a 8,8 0 0 0 0.324219,0.04883 c 0.1464805,0.02091 0.2925175,0.04187 0.4414055,0.05469 A 8,8 0 0 0 11,19 a 8,8 0 0 0 0.808593,-0.04102 8,8 0 0 0 0.0078,0 c 0.261895,-0.02671 0.519532,-0.06764 0.773438,-0.11914 0.206155,-0.04182 0.407284,-0.09689 0.607423,-0.154297 0.05477,-0.01571 0.111729,-0.02612 0.166015,-0.04297 a 8,8 0 0 0 0.01172,-0.0039 c 0.03598,-0.01123 0.0697,-0.02734 0.105469,-0.03906 a 8,8 0 0 0 3.679687,-2.50586 8,8 0 0 0 0.0098,-0.0098 c 5.8e-4,-7.03e-4 0.0014,-0.0012 0.002,-0.002 a 8,8 0 0 0 0.390545,-0.52336 c 0.02806,-0.04025 0.0586,-0.07836 0.08594,-0.119141 a 8,8 0 0 0 0.271484,-0.443359 c 0.05078,-0.08751 0.102875,-0.174121 0.15039,-0.263672 a 8,8 0 0 0 0.19336,-0.404297 c 0.04636,-0.100658 0.09447,-0.199895 0.136719,-0.302734 a 8,8 0 0 0 0.158203,-0.429688 c 0.03732,-0.108185 0.07469,-0.215963 0.107422,-0.326172 a 8,8 0 0 0 0.09766,-0.376953 c 0.0354,-0.144876 0.0703,-0.289688 0.09766,-0.4375 a 8,8 0 0 0 0.04883,-0.324218 c 0.02091,-0.146482 0.04187,-0.292518 0.05469,-0.441407 a 8,8 0 0 0 0.03514,-0.689453 8,8 0 0 0 -0.04102,-0.808594 8,8 0 0 0 0,-0.0078 C 18.932258,9.9216982 18.891338,9.6640616 18.839832,9.4101554 18.798012,9.2040001 18.742942,9.002871 18.685535,8.8027336 18.669825,8.7479646 18.659415,8.6910046 18.642565,8.636718 a 8,8 0 0 0 -0.0039,-0.011719 c -0.01123,-0.035983 -0.02734,-0.069703 -0.03906,-0.1054688 a 8,8 0 0 0 -2.505859,-3.6796874 8,8 0 0 0 -0.0098,-0.00977 c -7.03e-4,-5.805e-4 -0.0012,-0.00137 -0.002,-0.00195 A 8,8 0 0 0 15.558587,4.437499 C 15.518337,4.409438 15.480227,4.378898 15.439446,4.351562 A 8,8 0 0 0 14.996087,4.0800771 C 14.908577,4.0293001 14.821966,3.9772015 14.732415,3.9296865 A 8,8 0 0 0 14.328118,3.7363271 C 14.227461,3.6899641 14.128222,3.6418561 14.025384,3.5996084 A 8,8 0 0 0 13.595696,3.4414052 C 13.487512,3.4040892 13.379731,3.3667202 13.269524,3.3339834 a 8,8 0 0 0 -0.376953,-0.097656 c -0.144874,-0.035402 -0.289691,-0.070298 -0.4375,-0.097656 A 8,8 0 0 0 12.130853,3.0898434 C 11.984375,3.0689314 11.83833,3.0479744 11.689446,3.0351564 a 8,8 0 0 0 -0.689453,-0.035156 z m 0,2 a 6,6 0 0 1 5.958984,5.3632817 c -0.165881,-0.264184 -0.356033,-0.5177785 -0.591796,-0.7500005 -0.6576,-0.65104 -1.458057,-1.0371825 -2.404297,-1.1640624 -0.1408,-0.01888 -0.258692,-0.053462 -0.451172,0.017578 -0.19248,0.0704 -0.28695,0.2239925 -0.34375,0.3203125 -0.08208,0.13888 -0.550421,0.6177962 -0.812501,0.7851562 -0.74368,0.4752002 -2.015478,0.4753602 -2.7617175,0 -0.8824,-0.56208 -1.387236,-1.6648787 -1.228516,-2.6367187 0.08992,-0.55008 0.325531,-1.02726 0.712891,-1.4375 0.08048,-0.08528 0.140269,-0.1519753 0.189453,-0.2070313 0.01183,-0.013252 0.021,-0.029917 0.03125,-0.041016 A 6,6 0 0 1 11.000031,5.0000003 Z M 7.2637025,6.3046878 c -0.236615,0.5193882 -0.393804,1.187374 -0.392578,1.7363281 0.0012,0.512544 0.125881,1.1194208 0.320313,1.6054688 0.05136,0.12832 0.113228,0.3008796 0.298828,0.4160153 0.185616,0.1152 0.319507,0.1099 0.505859,0.13086 0.16192,0.01824 0.496644,0.09365 0.644532,0.144531 1.4894715,0.512432 2.1895305,2.218484 1.4902345,3.646484 -0.4691685,0.958016 -1.5978285,1.592853 -2.5898445,1.480469 -0.12848,-0.0144 -0.223107,-0.02212 -0.310547,-0.02149 -0.04368,3.04e-4 -0.0749,-0.0068 -0.167968,0.02149 -0.01099,0.003 -0.02904,0.01219 -0.04297,0.01758 A 6,6 0 0 1 5.0000305,11 6,6 0 0 1 7.2637025,6.3046878 Z m 0.457032,1.5253906 0.0019,0.00195 c 0.10496,0.6310241 0.358067,1.1659472 0.783203,1.6582032 -0.14592,-0.03312 -0.287633,-0.07903 -0.417969,-0.09375 -0.14608,-0.01664 -0.153265,-0.020966 -0.140625,-0.00977 -0.0048,-0.0112 -0.0028,-0.00767 -0.01563,-0.037109 -0.1464,-0.36624 -0.258806,-0.93778 -0.259766,-1.3125 -1.28e-4,-0.05536 0.04275,-0.1404553 0.04883,-0.2070313 z m 6.1015625,1.3984375 c 0.0096,5.76e-4 -0.02552,0.00762 0.0332,0.015625 0.326176,0.04368 0.52545,0.2719474 0.794922,0.3808594 -0.337936,-0.05104 -0.644347,-0.245852 -0.990234,-0.1875 -0.06896,0.0112 -0.08905,0.092062 -0.15625,0.1074219 0.1016,-0.1136 0.245912,-0.2004063 0.318359,-0.3164063 z m 0.416015,0.9648441 c 1.038352,0.02464 2.06246,0.718765 2.4375,1.716797 0.02976,0.07936 0.05111,0.139356 0.07031,0.1875 0.0096,0.024 0.01989,0.04404 0.03125,0.06836 0.0064,0.0128 0.01076,0.02377 0.02148,0.04297 0.0048,0.0096 0.01272,0.02159 0.02344,0.03711 0.0066,0.0095 0.02032,0.02334 0.03516,0.03906 a 6,6 0 0 1 -5.857421,4.714845 6,6 0 0 1 -2.5214845,-0.564454 c 0.364128,2.48e-4 0.725148,-0.02505 1.025391,-0.117188 l 0.03125,-0.0098 0.02148,-0.01172 0.0059,-0.0039 c 0.8105595,-0.26456 1.6607795,-0.859324 2.1308595,-1.519531 l 0.251953,-0.34961 -0.232422,-0.697266 c -0.53872,-1.630079 0.410992,-3.220032 2.082032,-3.501952 0.14704,-0.0248 0.294239,-0.03477 0.443358,-0.03125 z m -1.990235,0.203125 c -0.57888,0.4704 -1.03987,1.055197 -1.27539,1.716797 -0.22288,-0.63856 -0.64366,-1.226193 -1.1874995,-1.695313 0.8063995,0.30208 1.6662495,0.301236 2.4628895,-0.02148 z m -1.279296,3.624999 0.08789,0.269532 -0.01563,0.02148 c -0.0912,0.12816 -0.34043,0.209672 -0.496094,0.347656 0.08432,-0.12576 0.237471,-0.185017 0.304688,-0.322265 0.05152,-0.10512 0.08154,-0.211111 0.119141,-0.316407 z"/>
</svg>

<?xml version="1.0" encoding="UTF-8" standalone="no"?>
<svg
   width="22"
   height="22"
   version="1.1"
   id="svg1"
   sodipodi:docname="obs-tray.svg"
   inkscape:version="1.4.2 (ebf0e940d0, 2025-05-08)"
   xmlns:inkscape="http://www.inkscape.org/namespaces/inkscape"
   xmlns:sodipodi="http://sodipodi.sourceforge.net/DTD/sodipodi-0.dtd"
   xmlns="http://www.w3.org/2000/svg"
   xmlns:svg="http://www.w3.org/2000/svg">
  <sodipodi:namedview
     id="namedview1"
     pagecolor="#ffffff"
     bordercolor="#000000"
     borderopacity="0.25"
     inkscape:showpageshadow="2"
     inkscape:pageopacity="0.0"
     inkscape:pagecheckerboard="0"
     inkscape:deskcolor="#d1d1d1"
     inkscape:zoom="36.227273"
     inkscape:cx="11"
     inkscape:cy="11"
     inkscape:window-width="1920"
     inkscape:window-height="1011"
     inkscape:window-x="0"
     inkscape:window-y="0"
     inkscape:window-maximized="1"
     inkscape:current-layer="svg1" />
  <defs
     id="defs1">
    <style
       id="current-color-scheme"
       type="text/css">
   .ColorScheme-Text { color:#fcfcfc; } .ColorScheme-Highlight { color:#3daee9; }
  </style>
  </defs>
  <path
     id="path1"
     style="fill:currentColor"
     class="ColorScheme-Text"
     d="M 11 3 A 8 8 0 0 0 3 11 A 8 8 0 0 0 11 19 A 8 8 0 0 0 19 11 A 8 8 0 0 0 11 3 z M 11 4 A 7 7 0 0 1 18 11 A 7 7 0 0 1 11 18 A 7 7 0 0 1 4 11 A 7 7 0 0 1 11 4 z M 9.2949219 5.2539062 C 8.5566051 5.4712876 7.8669509 5.8287062 7.2636719 6.3066406 C 7.027316 6.825883 6.8698686 7.4924213 6.8710938 8.0410156 C 6.8722937 8.5535596 6.9969743 9.1604364 7.1914062 9.6464844 C 7.2427662 9.7748044 7.3046344 9.9473643 7.4902344 10.0625 C 7.6758504 10.1777 7.8097417 10.172399 7.9960938 10.193359 C 8.1580137 10.211599 8.492737 10.287009 8.640625 10.337891 C 10.130097 10.850323 10.830155 12.556375 10.130859 13.984375 C 9.6616908 14.942391 8.5330316 15.577228 7.5410156 15.464844 C 7.4125356 15.450444 7.3179086 15.442739 7.2304688 15.443359 C 7.1867887 15.443663 7.1555678 15.436554 7.0625 15.464844 C 7.0534 15.467344 7.0397818 15.473246 7.0273438 15.478516 C 7.4638416 15.866755 7.9546982 16.189168 8.484375 16.435547 C 8.8464853 16.435516 9.2052979 16.409997 9.5039062 16.318359 L 9.5351562 16.308594 L 9.5566406 16.296875 L 9.5625 16.292969 C 10.37306 16.028409 11.223279 15.433644 11.693359 14.773438 L 11.945312 14.423828 L 11.712891 13.726562 C 11.174171 12.096483 12.123882 10.506529 13.794922 10.224609 C 13.941962 10.199809 14.089162 10.189839 14.238281 10.193359 C 15.276633 10.217999 16.300741 10.912124 16.675781 11.910156 C 16.705541 11.989516 16.726894 12.049512 16.746094 12.097656 C 16.755694 12.121656 16.765984 12.141696 16.777344 12.166016 C 16.783744 12.178816 16.788108 12.189784 16.798828 12.208984 C 16.803628 12.218584 16.811546 12.230574 16.822266 12.246094 C 16.827666 12.253894 16.837969 12.265104 16.849609 12.277344 C 16.94537 11.858211 16.995782 11.42994 17 11 C 16.9976 10.787183 16.983944 10.574643 16.958984 10.363281 L 16.958984 10.361328 C 16.793303 10.097629 16.60255 9.8451086 16.367188 9.6132812 C 15.709587 8.9622412 14.909131 8.5760986 13.962891 8.4492188 C 13.822091 8.4303388 13.704199 8.3957569 13.511719 8.4667969 C 13.319239 8.5371969 13.224769 8.6907894 13.167969 8.7871094 C 13.085889 8.9259894 12.617549 9.4049056 12.355469 9.5722656 C 11.611789 10.047466 10.33999 10.047626 9.59375 9.5722656 C 8.71135 9.0101856 8.2065144 7.9073869 8.3652344 6.9355469 C 8.4551544 6.3854669 8.690765 5.9082869 9.078125 5.4980469 C 9.158605 5.4127669 9.2183941 5.3460716 9.2675781 5.2910156 C 9.2780896 5.2792406 9.2859896 5.2647709 9.2949219 5.2539062 z " />
</svg>
